Newaita-dark/.DP/16/skype-status-away.svg

<svg xmlns="http://www.w3.org/2000/svg" xmlns:xlink="http://www.w3.org/1999/xlink" width="16px" height="16px" viewBox="0 0 16 16" version="1.1">
<g id="surface1">
<path style=" stroke:none;fill-rule:nonzero;fill:rgb(93.333334%,93.333334%,93.333334%);fill-opacity:1;" d="M 5.363281 2.101562 C 3.796875 2.101562 2.535156 3.363281 2.535156 4.929688 C 2.535156 5.402344 2.652344 5.847656 2.855469 6.238281 C 2.648438 6.808594 2.535156 7.425781 2.535156 8.070312 C 2.535156 11.03125 4.917969 13.414062 7.878906 13.414062 C 8.109375 13.414062 8.335938 13.398438 8.558594 13.371094 C 9.050781 13.789062 9.691406 14.042969 10.390625 14.042969 C 11.957031 14.042969 13.21875 12.78125 13.21875 11.214844 C 13.21875 10.738281 13.105469 10.292969 12.898438 9.902344 C 13.105469 9.332031 13.21875 8.714844 13.21875 8.070312 C 13.21875 5.109375 10.835938 2.726562 7.878906 2.726562 C 7.644531 2.726562 7.417969 2.742188 7.195312 2.769531 C 6.703125 2.351562 6.0625 2.101562 5.363281 2.101562 Z M 8.59375 5.746094 C 8.769531 5.746094 8.941406 5.816406 9.066406 5.945312 L 10.71875 7.597656 C 10.976562 7.855469 10.976562 8.273438 10.71875 8.527344 L 9.066406 10.183594 C 8.898438 10.351562 8.65625 10.421875 8.425781 10.359375 C 8.195312 10.300781 8.015625 10.121094 7.957031 9.890625 C 7.898438 9.660156 7.964844 9.417969 8.132812 9.25 L 8.664062 8.722656 L 5.621094 8.722656 C 5.386719 8.726562 5.164062 8.601562 5.042969 8.394531 C 4.925781 8.191406 4.925781 7.9375 5.042969 7.730469 C 5.164062 7.527344 5.386719 7.402344 5.621094 7.40625 L 8.664062 7.40625 L 8.132812 6.875 C 7.941406 6.6875 7.882812 6.402344 7.984375 6.15625 C 8.082031 5.90625 8.324219 5.746094 8.59375 5.746094 Z M 8.59375 5.746094 "/>
</g>
</svg>

<svg xmlns="http://www.w3.org/2000/svg" width="16pt" height="16pt" viewBox="0 0 16 16"><path d="M5.363 2.102a2.83 2.83 0 0 0-2.508 4.137 5.36 5.36 0 0 0-.32 1.831 5.331 5.331 0 0 0 6.024 5.301 2.823 2.823 0 0 0 1.832.672 2.822 2.822 0 0 0 2.828-2.828c0-.477-.114-.922-.32-1.313a5.36 5.36 0 0 0 .32-1.832 5.33 5.33 0 0 0-6.024-5.3 2.82 2.82 0 0 0-1.832-.668zm3.23 3.644a.66.66 0 0 1 .473.2l1.653 1.652a.655.655 0 0 1 0 .93l-1.653 1.656a.66.66 0 1 1-.933-.934l.531-.527H5.621a.66.66 0 0 1-.578-.993.665.665 0 0 1 .578-.324h3.043l-.531-.531a.657.657 0 0 1-.149-.719.65.65 0 0 1 .61-.41zm0 0" fill="#bdbdbd"/></svg>
